src/lib/packages/icons/src/assets/line/bolt-square.svg

<svg width="24" height="24" viewBox="0 0 24 24" fill="none" xmlns="http://www.w3.org/2000/svg">
<path d="M17.625 2.25H6.375C3.715 2.25 2.25 3.715 2.25 6.375V17.625C2.25 20.285 3.715 21.75 6.375 21.75H17.625C20.285 21.75 21.75 20.285 21.75 17.625V6.375C21.75 3.715 20.285 2.25 17.625 2.25ZM20.25 17.625C20.25 19.465 19.465 20.25 17.625 20.25H6.375C4.535 20.25 3.75 19.465 3.75 17.625V6.375C3.75 4.535 4.535 3.75 6.375 3.75H17.625C19.465 3.75 20.25 4.535 20.25 6.375V17.625ZM15.055 9.41701H14.002L14.765 7.64999C14.947 7.22799 14.905 6.74701 14.653 6.36301C14.4 5.97901 13.975 5.75 13.515 5.75H10.778C10.08 5.75 9.47899 6.197 9.26099 6.854L7.65399 10.959C7.51599 11.373 7.58698 11.832 7.84198 12.185C8.09698 12.539 8.50998 12.75 8.94598 12.75H10.035L8.48901 17.257C8.37601 17.587 8.50503 17.951 8.80103 18.136C8.92403 18.213 9.062 18.25 9.198 18.25C9.391 18.25 9.58403 18.175 9.72803 18.03L16.017 11.74C16.408 11.349 16.524 10.767 16.312 10.257C16.101 9.746 15.606 9.41701 15.055 9.41701ZM10.959 14.677L11.669 12.608C11.776 12.296 11.727 11.949 11.534 11.679C11.343 11.41 11.03 11.249 10.7 11.249H9.14899L10.67 7.36301C10.709 7.24901 10.755 7.24899 10.777 7.24899H13.303L12.337 9.485C12.2 9.803 12.233 10.165 12.423 10.454C12.613 10.743 12.934 10.916 13.279 10.916H14.717L10.959 14.677Z" fill="currentColor"/>
</svg>

<svg xmlns="http://www.w3.org/2000/svg" width="24" height="24" fill="none"><path fill="currentColor" d="M17.625 2.25H6.375c-2.66 0-4.125 1.465-4.125 4.125v11.25c0 2.66 1.465 4.125 4.125 4.125h11.25c2.66 0 4.125-1.465 4.125-4.125V6.375c0-2.66-1.465-4.125-4.125-4.125Zm2.625 15.375c0 1.84-.785 2.625-2.625 2.625H6.375c-1.84 0-2.625-.785-2.625-2.625V6.375c0-1.84.785-2.625 2.625-2.625h11.25c1.84 0 2.625.785 2.625 2.625v11.25Zm-5.195-8.208h-1.053l.763-1.767a1.359 1.359 0 0 0-1.25-1.9h-2.737c-.698 0-1.299.447-1.517 1.104l-1.607 4.105a1.364 1.364 0 0 0 1.292 1.791h1.089l-1.546 4.507a.75.75 0 0 0 1.239.773l6.289-6.29c.391-.391.507-.973.295-1.483a1.356 1.356 0 0 0-1.257-.84Zm-4.096 5.26.71-2.069a1.027 1.027 0 0 0-.969-1.359H9.149l1.521-3.886c.039-.114.085-.114.107-.114h2.526l-.966 2.236c-.137.318-.104.68.086.969.19.289.511.462.856.462h1.438l-3.758 3.761Z"/></svg>
